src/cmd/32/insertcolumnsafter.svg

<svg viewBox="0 0 32 32" xmlns="http://www.w3.org/2000/svg"><path d="m4 4v24h14v-1h-5v-3h5v-1h-5v-3h5v-1h-5v-3h6v-1h-6v-3h6v-1h-6v-3h6v-1h-6v-2h6v-1zm1 1h7v2h-7zm0 3h7v3h-7zm0 4h7v3h-7zm0 4h7v3h-7zm18 3v4h-4v1h4v4h1v-4h4v-1h-4v-4zm-18 1h7v3h-7zm0 4h7v3h-7z" fill="#232629"/><path d="m19 4v14h1v-.341797l.398438.341797h1.537109l-1.611328-1.380859-.324219-.277344v-2.683594l5.064453 4.341797h1.537109l-6.277343-5.380859-.324219-.277344v-2.6835939l6.673828 5.7207029.326172.28125v2.339844h1v-14h-1-7zm1.769531 1h3.128907l2.77539 2.3789062.326172.28125v2.6816408zm4.666016 0h1.564453v1.3417969zm-5.435547.6582031 6.673828 5.7207029.326172.28125v2.681641l-6.675781-5.7226564-.324219-.2773437z" fill="#762572"/></svg>

<?xml version="1.0" encoding="UTF-8" standalone="no"?>
<svg
   xmlns:dc="http://purl.org/dc/elements/1.1/"
   xmlns:cc="http://creativecommons.org/ns#"
   xmlns:rdf="http://www.w3.org/1999/02/22-rdf-syntax-ns#"
   xmlns:svg="http://www.w3.org/2000/svg"
   xmlns="http://www.w3.org/2000/svg"
   xmlns:sodipodi="http://sodipodi.sourceforge.net/DTD/sodipodi-0.dtd"
   xmlns:inkscape="http://www.inkscape.org/namespaces/inkscape"
   viewBox="0 0 32 32"
   version="1.1"
   id="svg6"
   sodipodi:docname="insertcolumnsafter.svg"
   inkscape:version="0.92.4 (5da689c313, 2019-01-14)">
  <metadata
     id="metadata12">
    <rdf:RDF>
      <cc:Work
         rdf:about="">
        <dc:format>image/svg+xml</dc:format>
        <dc:type
           rdf:resource="http://purl.org/dc/dcmitype/StillImage" />
      </cc:Work>
    </rdf:RDF>
  </metadata>
  <defs
     id="defs10" />
  <sodipodi:namedview
     pagecolor="#ffffff"
     bordercolor="#666666"
     borderopacity="1"
     objecttolerance="10"
     gridtolerance="10"
     guidetolerance="10"
     inkscape:pageopacity="0"
     inkscape:pageshadow="2"
     inkscape:window-width="1920"
     inkscape:window-height="1011"
     id="namedview8"
     showgrid="true"
     inkscape:zoom="20.85965"
     inkscape:cx="6.7506627"
     inkscape:cy="18.845884"
     inkscape:window-x="0"
     inkscape:window-y="32"
     inkscape:window-maximized="1"
     inkscape:current-layer="svg6">
    <inkscape:grid
       type="xygrid"
       id="grid822" />
  </sodipodi:namedview>
  <path
     d="m 4,6 v 20 c 0,2 1,2 3,2 h 11 v -1 h -5 v -3 h 5 v -1 h -5 v -3 h 5 v -1 h -5 v -3 h 6 v -1 h -6 v -3 h 6 V 11 H 13 V 8 h 6 V 7 H 13 V 5 h 6 V 4 H 7 C 5,4 4,4 4,6 Z M 5,6 C 5,5 6,5 7,5 h 5 V 7 H 5 Z m 0,2 h 7 v 3 H 5 Z m 0,4 h 7 v 3 H 5 Z m 0,4 h 7 v 3 H 5 Z m 18,3 v 4 h -4 v 1 h 4 v 4 h 1 v -4 h 4 V 23 H 24 V 19 Z M 5,20 h 7 v 3 H 5 Z m 0,4 h 7 v 3 H 7 C 6,27 5,27 5,26 Z"
     id="path2"
     inkscape:connector-curvature="0"
     style="fill:#232629"
     sodipodi:nodetypes="cccccccccccccccccccccccccccccccccccccccccccccccccccccccccccccccccccccccccccc" />
  <path
     d="m 19,4 v 14 h 1 V 17.658203 L 20.398438,18 h 1.537109 L 20.324219,16.619141 20,16.341797 V 13.658203 L 25.064453,18 h 1.537109 L 20.324219,12.619141 20,12.341797 V 9.6582031 L 26.673828,15.378906 27,15.660156 V 18 h 1 V 6 C 28,4 27,4 25,4 h -5 z m 1.769531,1 h 3.128907 L 26.673828,7.3789062 27,7.6601562 v 2.6816408 z m 4.666016,0 C 26,5 27,5 27,6 V 6.3417969 Z M 20,5.6582031 26.673828,11.378906 27,11.660156 v 2.681641 L 20.324219,8.6191406 20,8.3417969 Z"
     id="path4"
     inkscape:connector-curvature="0"
     style="fill:#762572"
     sodipodi:nodetypes="ccccccccccccccccccccccccccccccccccccccc" />
</svg>
